!!!!SEGMENT: pl-sa--132-a-iii-32--001-004_haydn-joseph--cassatio-in-b-menuet.krn
!!!cenid: 17xx:568
!!!COM: Haydn, Joseph
!!!COM-rismID: pe55803
!!!CDT: 1732/03/31-1809/05/31
!!!CNT: Austrian
!!!OPR: Cassatio in B
!!!OTL: Menuet
!!!OMV: 004
!!!PDT:
!!!AGN: Secular; Cassation
!!!YEC: Copyright 2022 Narodowy Instytut Fryderyka Chopina (https://polishscores.org)
!!!YEM: License CC-BY-4.0 (https://creativecommons.org/licenses/by/4.0)
!!!SMS-siglum: PL-SA
!!!SMS-shelfmark: 132/A III 32
!!!SMS-shelfwork: 001-004 M
!!!SMS-variant:
!!!SMS-altvar:
!!!NIFC-rismSourceID: 1001077259
!!!NIFC-rismChildID: 1001077259
!!!NIFC-islandoraID: none
!!!URL-pdf-islandora:
!!!URL-scan: https://bc.bdsandomierz.pl/dlibra/publication/1489/edition/1457/content @EN{Scan in the Sandomierz Diocese Digital Library} @PL{Skany w portalu Cyfrowa Biblioteka Diecezjalna w Sandomierzu}
!!!IIIF:
!!!ONB-nifc: UWAGA: części Cassatio: Adagio, Menuet, Presto, Menuet, Presto
!!!AIN: 1 empty 1 viola 2 violn
!!!key:
**kern	**kern	**dynam	**kern	**dynam	**kern
*group1	*group1	*	*group1	*	*group1
*part4	*part3	*	*part2	*	*part1
*staff4	*staff3	*	*staff2	*	*staff1
*Iempty	*Iviola	*	*Ivioln	*	*Ivioln
*I"Baſso	*I"Viola	*	*I"Violino Secondo	*	*I"Violino Primo
*I'B	*I'Vla	*	*I'Vl 2	*	*I'Vl 1
*clefF4	*clefC3	*	*clefG2	*	*clefG2
*k[e-b-]	*k[b-e-]	*	*k[b-e-]	*	*k[e-b-]
*B-:	*B-:	*	*B-:	*	*B-:
*M3/4	*M3/4	*	*M3/4	*	*M3/4
*>[AAA1A1BBB1B1]	*>[AAA1A1BBB1B1]	*	*>[AAA1A1BBB1B1]	*	*>[AAA1A1BBB1B1]
=1	=1	=1	=1	=1	=1
*>A	*>A	*>A	*>A	*>A	*>A
!	!	!	!	!	!LO:TX:a:t=Menuetto
!LO:TX:a:t=Menuet	!LO:TX:a:t=(Me)nuet	!	!	!	!LO:TX:a:t=problem:4\right:global
!	!LO:TX:a:t=problem: urwana kartka. brak klucza i znaków	!	!LO:TX:a:t=Menuet	!	!
4r	4r	.	4f`/	.	4ff`\
4r	4r	.	(4f/	.	(4ff\
!LO:TX:a:t=problem:4\right:global	!	!	!	!	!
4B-\	4B-/	.	4g/)	.	4gg\)
=2	=2	=2	=2	=2	=2
*	*	*	*	*	*2\right
!	!	!	!	!	!LO:TX:a:t=problem:2\right:global
4c\	4c`/	.	2e-/	.	2ee-\
4c\	(4c/	.	.	.	.
4A\	4A/)	.	4c/	.	4cc\
=3	=3	=3	=3	=3	=3
4B-\	4B-/	.	4d/	.	4dd`\
4r	4r	.	4d/	.	(4dd\
4E-\	4E-/	.	4e-/	.	4ee-\)
=4	=4	=4	=4	=4	=4
!	!	!	!	!LO:DY:t=pia	!
!	!	!	!	!LO:DY:a	!
4F\	4F`/	.	2c/	p	2cc\
4F\	(4F/	.	.	.	.
4E-\	4E-/)	.	4A/	.	4f/
=5	=5	=5	=5	=5	=5
4D\	4D/	.	4B-/	.	4b-`\
4r	4r	.	4B-/	.	(4b-\
!	!	!LO:DY:t=pi.	!	!	!
4BB-/	4B-/	p	4d/	.	4dd\)
=6	=6	=6	=6	=6	=6
4E-\	4e-`\	.	2G/	.	2g/
4E-\	(4e-\	.	.	.	.
4C/	4c\)	.	4c/	.	4cc\
=7	=7	=7	=7	=7	=7
4F\	4f\	.	4A/	.	4f/
4r	4r	.	4r	.	4g/
.	.	.	.	.	16qqb-/
4FF/	4F/	.	4e-/	.	8a/L
!	!	!	!	!	!LO:N:vis=32
.	.	.	.	.	16g/L
!	!	!	!	!	!LO:N:vis=32
.	.	.	.	.	16a/JJ
=8	=8	=8	=8	=8	=8
4BB-/	4B-/	.	4d/	.	4b-\
4r	4r	.	4r	.	4r
4r	4r	.	4r	.	4r
!	!	!	!LO:LB:g=original	!	!
=9:|!|:	=9:|!|:	=9:|!|:	=9:|!|:	=9:|!|:	=9:|!|:
*>A1yy	*>A1yy	*>A1yy	*>A1yy	*>A1yy	*>A1yy
!	!	!	!	!LO:DY:t=for	!
!	!	!	!LO:TX:a:t=problem:4\right:global	!	!
4r	4r	.	4b-\	f	4bb-`\
4r	4r	.	4b-\	.	(4bb-\
4B-\	4B-/	.	4dd\	.	4ddd\)
=10	=10	=10	=10	=10	=10
*	*	*	*2\right	*	*
!	!	!	!LO:TX:a:t=problem:2\right:global	!	!
4A`\	4A`/	.	2cc\	.	2ccc\
(4A\	(4A/	.	.	.	.
4F\)	4F/)	.	4a\	.	4aa\
!	!	!	!	!	!LO:LB:g=original
=11	=11	=11	=11	=11	=11
4En\	4En/	.	4g`/	.	4gg`\
4r	4r	.	(4g/	.	(4gg\
!LO:LB:g=original	!	!	!	!	!
4C/	4C/	.	4b-/)	.	4bb-\)
=12	=12	=12	=12	=12	=12
4F\	4F`/	.	2a/	.	2aa\
4F\	(4F/	.	.	.	.
4A\	4A/)	.	4f/	.	4ff\
!	!LO:LB:g=original	!	!	!	!
=13	=13	=13	=13	=13	=13
!	!LO:TX:a:t=problem: urwana kartka	!	!	!	!
4B-\	4d\yy	.	4d`/	.	4dd\
4r	4r	.	(4b-\	.	4bb-\
4r	4r	.	4g\)	.	4gg\
=14	=14	=14	=14	=14	=14
!	!LO:TX:a:t=SIC:s=4en	!	!	!	!
4c\	4e-\	.	4en/	.	4een\
4r	4r	.	(4cc\	.	4ccc\
4r	4r	.	4a\)	.	4aa\
=15	=15	=15	=15	=15	=15
!	!	!	!	!	!LO:TX:a:t=problem:8\right:global
4d\	4d\	.	4r	.	8een\L
.	.	.	.	.	8ff\J
4c\	4c\	.	4f/	.	4a/
4C/	4C/	.	4en/	.	4g/
=16	=16	=16	=16	=16	=16
.	.	.	.	.	8qqg/
4F\	4F/	.	2f/	.	2f/
4F\	4f\	.	.	.	.
4E-X\	4e-X\	.	4r	.	4r
=17	=17	=17	=17	=17	=17
*2\right	*2\right	*	*	*	*
!LO:TX:a:t=problem:2\right:global	!LO:TX:a:t=problem:2\right:global	!	!	!	!
2.D\	2d\	.	[>2.B-/	.	4ff\
.	.	.	.	.	4ff\
.	4D/	.	.	.	4a-X/
=18	=18	=18	=18	=18	=18
.	.	.	.	.	8qqa/
2.E-\	2.E-/	.	4B-/]	.	2.g/
.	.	.	4B-/	.	.
.	.	.	4Bn/	.	.
!	!	!	!LO:LB:g=original	!	!
=19	=19	=19	=19	=19	=19
!	!	!	!	!	!LO:TX:t=P:problem=mixed beam
4E-\	4E-/	.	2.c/	.	8g/L
.	.	.	.	.	(8gg\
4E-\	4E-/	.	.	.	8ff\
.	.	.	.	.	8ee-\
4En\	4En/	.	.	.	8dd\
.	.	.	.	.	8cc\J)
=20	=20	=20	=20	=20	=20
.	.	.	.	.	8qqb-/
4.F\	4.F/	.	4c/	.	2.a/
.	.	.	4r	.	.
!LO:TX:a:t=problem:8\right:global	!	!	!	!	!
8G\L	8G/L	.	.	.	.
8A\	8A/	.	4r	.	.
8B-\J	8B-/J	.	.	.	.
!	!	!	!	!	!LO:LB:g=original
=21	=21	=21	=21	=21	=21
4c\	4c\	.	4e-`/	.	4ee-`\
4r	4r	.	(4e-/	.	(4ee-\
4r	4r	.	4c/)	.	4cc\)
=22	=22	=22	=22	=22	=22
4D/	4d`\	.	2f/	.	2ff\
4D/	(4d\	.	.	.	.
4BB-/	4B-\)	.	4d/	.	4dd\
!LO:LB:g=original	!	!	!	!	!
=23	=23	=23	=23	=23	=23
4E-\	4e-\	.	4g`/	.	4gg\
4r	4r	.	(4g/	.	(4gg\
4E-\	4e-\	.	4a/)	.	4aa\)
=24	=24	=24	=24	=24	=24
4D`\	4d`\	.	2b-\	.	2bb-\
(4D\	(4d\	.	.	.	.
!	!	!	!LO:TX:a:t=SIC:s=4dd	!	!
4BB-'/)	4B-\)	.	4cc\	.	4ddd\
=25	=25	=25	=25	=25	=25
4C/	4c\	.	4e-`/	.	4ee-`\
4r	4r	.	(4e-/	.	(4ee-\
4A\	4A/	.	4f/)	.	4gg\)
!	!LO:LB:g=original	!	!	!	!
=26	=26	=26	=26	=26	=26
4B-\	4B-/	.	2d/	.	2dd\
4BB-/	4B-/	.	.	.	.
4D/	4d\	.	4B-/	.	4b-\
=27	=27	=27	=27	=27	=27
4F\	4f\	.	4A/	.	4f/
4r	4r	.	4r	.	4g/
.	.	.	.	.	16qqb-/
4F\	4F/	.	4e-/	.	8a/L
.	.	.	.	.	16g/L
.	.	.	.	.	16a/JJ
=28	=28	=28	=28	=28	=28
4BB-/	4B-/	.	4d/	.	4b-\
4r	4r	.	4r	.	4r
!	!	!	!LO:TX:a:t=problem:podwójna kreska	!	!
4r	4r	.	4r	.	4r
!	!	!	!LO:LB:g=original	!	!LO:LB:g=original
=29:|!|:	=29:|!|:	=29:|!|:	=29:|!|:	=29:|!|:	=29:|!|:
*>B	*>B	*>B	*>B	*>B	*>B
*k[b-e-]	*k[b-e-]	*	*k[b-e-]	*	*k[b-e-]
*M3/4	*M3/4	*	*M3/4	*	*M3/4
!	!	!	!	!LO:DY:t=p.	!
!LO:TX:a:t=Trio	!LO:TX:a:t=Trio	!	!LO:TX:a:t=Trio	!	!LO:TX:a:t=Trio
4BB-/	4B-/	.	2.d-X/	p	2.f/
4BB-/	4B-/	.	.	.	.
4BB-/	4B-/	.	.	.	.
=30	=30	=30	=30	=30	=30
4BB-/	4B-/	.	2.e-/	.	2.g-X/
4BB-/	4B-/	.	.	.	.
4BB-/	4B-/	.	.	.	.
=31	=31	=31	=31	=31	=31
4BB-/	4B-/	.	2.c/	.	2.e-/
4BB-/	4B-/	.	.	.	.
4BB-/	4B-/	.	.	.	.
=32	=32	=32	=32	=32	=32
4BB-/	4B-/	.	4d-X/	.	4f/
4r	4r	.	4r	.	4r
!	!	!	!	!	!LO:TUP:a
4r	4r	.	4r	.	(12dd-X\L
.	.	.	.	.	12cc\
.	.	.	.	.	12b-\J)
!LO:LB:g=original	!	!	!	!	!
=33	=33	=33	=33	=33	=33
*	*	*	*Xtuplet	*	*Xtuplet
!	!	!	!	!LO:DY:t=fo	!
!	!	!	!LO:TX:a:t=problem:triole bez oznaczeń:global	!	!LO:TX:a:t=problem:triole bez oznaczeń:global
4F\	4F/	.	(12c/L	f	(12a\L
.	.	.	12d-X/	.	12b-\
.	.	.	&(12e-/J)	.	12cc\J)
4BB-/	4B-/	.	4d-/&)	.	4b-\
4r	4r	.	4r	.	(12dd-X\L
.	.	.	.	.	12cc\
.	.	.	.	.	12b-\J)
=34	=34	=34	=34	=34	=34
4FF/	4F/	.	(12c/L	.	(12a\L
.	.	.	12d-X/	.	12b-\
.	.	.	12e-/J)	.	12cc\J)
4BB-/	4B-/	.	4d-/	.	4b-\
8.F\L	8.f\L	.	8.f/L	.	8.f/L
!LO:TX:a:t=problem:16\right:global	!	!	!	!	!
16E-\Jk	16e-\Jk	.	16e-/Jk	.	16e-X/Jk
!	!LO:LB:g=original	!	!	!	!
=35	=35	=35	=35	=35	=35
!	!LO:TX:a:t=SIC:s=4db	!	!	!	!
!	!LO:TX:a:t=problem: urwana kartka	!	!	!	!
4D-X\	4d-X\	.	4d-X/	.	4d-X/
4C/	4c\	.	4d-/	.	4d-/
4BB-/	4B-\	.	4B-/	.	4B-/
=36	=36	=36	=36	=36	=36
4F\	4f\	.	2f/	.	2f/
4FF/	4F/	.	.	.	.
4r	4r	.	4r	.	4r
!	!	!	!	!	!LO:LB:g=original
=37:|!|:	=37:|!|:	=37:|!|:	=37:|!|:	=37:|!|:	=37:|!|:
*>B1yy	*>B1yy	*>B1yy	*>B1yy	*>B1yy	*>B1yy
!	!	!	!	!LO:DY:t=p.	!
4r	2.dd-X\	.	2.ff\	p	2.r
4d-X\	.	.	.	.	.
4c\	.	.	.	.	.
=38	=38	=38	=38	=38	=38
4Bn\	4dd\	.	4ff\	.	2.gg-X\
4c\	[2cc\	.	2ee-\	.	.
4B-X\	.	.	.	.	.
=39	=39	=39	=39	=39	=39
4A\	8cc\L_	.	4ee-\	.	2.ff\
.	8cc\J]	.	.	.	.
4B-\	4b-\	.	4dd-X\	.	.
4A-X\	4a-X\	.	4cc\	.	.
=40	=40	=40	=40	=40	=40
4G-X\	4g-X\	.	2.b-\	.	4ee-\
4F\	4f\	.	.	.	4ee-\
4E-\	4e-\	.	.	.	4gg-X\
=41	=41	=41	=41	=41	=41
!	!	!	!	!LO:DY:t=fo	!
4F\	4f\	.	(12c/L	f	(12an/L
.	.	.	12d-X/	.	12b-/
.	.	.	12e-/J)	.	12cc/J)
4FF/	4B-/	.	4d-/	.	4b-\
4r	4r	.	4r	.	4gg-X\
=42	=42	=42	=42	=42	=42
4FF/	4F/	.	(12c/L	.	(12an\L
.	.	.	12d-X/	.	12b-\
.	.	.	12e-/J)	.	12cc\J)
4BB-/	4B-/	.	4d-/	.	4b-\
8.G-X\L	8.g-X\L	.	8.g-X/L	.	8.g-X/L
16F\Jk	16f\Jk	.	16f/Jk	.	16f/Jk
!LO:LB:g=original	!	!	!	!	!
=43	=43	=43	=43	=43	=43
4E-\	4e-\	.	4e-/	.	4e-/
!LO:TX:a:t=SIC:s=4C	!	!	!	!	!
4BB-\	4c\	.	4c/	.	4c/
4F\	4f\	.	4f/	.	4f/
=44	=44	=44	=44	=44	=44
4BB-/	4B-/	.	4B-/	.	4B-/
4r	4r	.	4r	.	4r
!LO:TX:a:t=Menuet Da Capo	!LO:TX:a:t=menuet Da Capo	!	!LO:TX:a:t=Da Capo Menuetto	!	!LO:TX:a:t=Da Capo Menuetto
4r	4r	.	4r	.	4r
==	==:|	==	==	==	==
*-	*-	*-	*-	*-	*-
!!!system-decoration: [(g1)]
!!!RDF**kern: >=above
!!!RDF**kern: <= below
!!!ENC: Anna Matuszewska
!!!END: 2020-08-13
